X: 6954
T: Cheticamp, The
R: jig
M: 6/8
K: Cdorian
K: BbMaj
f/a/c’|:d’2 b f2 d|B3- BFD|B,DF Bdb|a3 aba|
g2 e c2 B|A3 AcB|1 AGF AGF|D3 DFB:|2 AGF FGA|B3 BFD||
|:B2 D F2 B|d3 B2 F|dBF dBd|c3 cAG|
F2 A c2 d|e3 g2 b|agf edc|1 d3 dBF:|2 B3 B||

